X: 1
T: Donald Ian Rankine
M: 6/8
L: 1/8
R: jig
K: Fmaj
G[|Acc FAA|CFF A,CC|A,CC FAA|FEE E2D|
CEE EGG|GBB Bcc|cee ecc|BAA A2G|
Acc FAA|CFF A,CC|A,CC FAA|FEE E2D|
CEE EGG|GBB Bcc|cee ede|gff f2|]
g[|aff cff|aff dcc|aff cff|fee e2f|
gee cee|g^fg edc|gee cee|dcc  c3|
aff cff|aff dcc|aff cff|fdd d3|
dBB FBB|CFF Acc|cee ede|gff f2|]
